X:1
T:Title
%%score { ( 1 4 ) | ( 2 3 ) }
L:1/8
M:6/8
K:C
V:1 treble nm="Grand Piano"
V:4 treble 
V:2 bass 
V:3 bass 
V:1
 z3 z2[Q:1/4=90] E/D/ | C2 E [EG]2 [Ec] | c2 A F2 A | [EG]2 E EDC | [B,D]2 G G3 |[M:1/8] E/D/ | %6
[M:3/4] C2 E [EG]2 [Ec] | c2 A F2 A | G2 cB AB | [Ec]6 | d4 z2 | e6 | d4 z2 |[M:5/8] c-c- c3 | %14
[M:1/8] [EG] |[M:3/4] [FA]2 [FA][Ac] [GB][FA] | [EG]2 [Ec] [Ge]2 [Gc] | d2 dB AB | %18
[M:5/8] [Ec]-[Ec]- [Ec]3 |] %19
V:2
 z3 z2 .G, | [C,E,]2 [C,G,C] [C,C]2 [C,G,] | [F,A,F]2 [F,CF] [F,A,]2 [F,CF] | z3 .G,3 | %4
 [G,,G,]2 [G,B,D] [G,B,D]3 |[M:1/8] G,/ z/ |[M:3/4] [C,E,]2 [C,G,C] [C,C]2 [C,G,] | %7
 [F,A,F]2 [F,CF] [F,A,]2[K:treble] [F,CF] | [G,CE]2 [G,E] [G,F]2 [G,F] | [C,G,]6 | %10
 [G,B,G][G,B,] [G,B,][G,B,][K:treble] [G,B,G][G,B,G] | [C,C][C,C] [C,C] .[C,C]3 | %12
 [G,B,F][G,B,] [G,B,][G,B,] [G,B,F][G,B,F] |[M:5/8][K:bass] [C,C][C,G,][C,G,] [C,G,]2 | %14
[M:1/8] [C,C] |[M:3/4] [F,C]2 [F,C] [F,C]2 [F,C] | [C,C]2 [C,C] [C,C]2 [E,C] | %17
 [F,A,F]2 [F,A,F][G,DF] [G,DF][G,DF] |[M:5/8][K:bass] [C,C]-[C,C]- [C,C]3 |] %19
V:3
 z3 z2 [C,C]/-[C,F,C]/ | x6 | x6 | [C,C]2 [C,G,C] [C,C]-[C,F,C][C,E,] | x6 | %5
[M:1/8] [C,C]/-[C,F,C]/ |[M:3/4] x6 | x5[K:treble] x | x6 | x6 | x4[K:treble] x2 | x6 | x6 | %13
[M:5/8][K:bass] x5 |[M:1/8] x |[M:3/4] x6 | x6 | x6 |[M:5/8][K:bass] x5 |] %19
V:4
 x6 | x6 | x6 | x6 | x6 |[M:1/8] x |[M:3/4] x6 | x6 | x6 | x6 | z G GG cd | GG G .G3 | z F FF cd | %13
[M:5/8] EEE E2 |[M:1/8] x |[M:3/4] x6 | x6 | x6 |[M:5/8] x5 |] %19

